assets/images/logoWhite.svg

<svg height="35" viewBox="0 0 303 35" width="303" xmlns="http://www.w3.org/2000/svg"><g fill="#fff" fill-rule="evenodd" transform="translate(0 -8)"><g font-family="BebasNeue-Regular, Bebas Neue" font-size="46.532518" letter-spacing="-.978859253"><text><tspan x="17" y="42">VALLE</tspan> <tspan x="96.143431" y="42">Y</tspan></text><text><tspan x="122" y="42">Desig</tspan> <tspan x="197.42083" y="42">n</tspan></text><text><tspan x="227" y="42">Buil</tspan> <tspan x="285.531202" y="42">d</tspan></text></g><path d="m12 42-3.83038578-10.5501471 3.42378028 2.9011921-4.99361822-9.351045 2.9067332 1.786997-4.41054447-9.145079 3.20198044 1.9086998-4.44276245-7.7268941 1.55248498-.0031621c-2.05249249-2.54704107-3.07873873-3.8205616-3.07873873-3.8205616-.28491146 3.3130506-.4273672 4.9695759-.4273672 4.9695759.86657207-.8318858 1.29985811-1.2478287 1.29985811-1.2478287-.88060646 5.5048867-1.32090969 8.25733-1.32090969 8.25733 1.15229064-1.6903857 1.72843596-2.5355786 1.72843596-2.5355786-1.1280328 6.8081833-1.6920492 10.212275-1.6920492 10.212275 1.45361344-1.8026389 2.18042016-2.7039584 2.18042016-2.7039584-2.26933729 6.2711598-3.40400593 9.4067397-3.40400593 9.4067397 1.76758103-1.8761569 2.65137154-2.8142354 2.65137154-2.8142354l-3.344683 10.034409z"/></g></svg>

<?xml version="1.0" encoding="UTF-8"?>
<svg width="303px" height="35px" viewBox="0 0 303 35" version="1.1" xmlns="http://www.w3.org/2000/svg" xmlns:xlink="http://www.w3.org/1999/xlink">
    <!-- Generator: Sketch 60.1 (88133) - https://sketch.com -->
    <title>Group</title>
    <desc>Created with Sketch.</desc>
    <g id="Page-1" stroke="none" stroke-width="1" fill="none" fill-rule="evenodd">
        <g id="Artboard" transform="translate(-21.000000, -20.000000)" fill="#FFFFFF">
            <g id="Group-9" transform="translate(0.000000, -1.000000)">
                <g id="Group" transform="translate(21.000000, 13.000000)">
                    <g id="Group-3">
                        <text id="VALLEY" font-family="BebasNeue-Regular, Bebas Neue" font-size="46.532518" font-weight="normal" letter-spacing="-0.978859253">
                            <tspan x="17" y="42">VALLE</tspan>
                            <tspan x="96.1434312" y="42">Y</tspan>
                        </text>
                        <text id="Design" font-family="BebasNeue-Regular, Bebas Neue" font-size="46.532518" font-weight="normal" letter-spacing="-0.978859253">
                            <tspan x="122" y="42">Desig</tspan>
                            <tspan x="197.42083" y="42">n</tspan>
                        </text>
                        <text id="Build" font-family="BebasNeue-Regular, Bebas Neue" font-size="46.532518" font-weight="normal" letter-spacing="-0.978859253">
                            <tspan x="227" y="42">Buil</tspan>
                            <tspan x="285.531202" y="42">d</tspan>
                        </text>
                        <path d="M12,42 L8.16961422,31.4498529 L11.5933945,34.351045 L6.59977628,25 L9.50650948,26.786997 L5.09596501,17.641918 L8.29794545,19.5506178 L3.855183,11.8237237 L5.40766798,11.8205616 C3.35517549,9.27352053 2.32892925,8 2.32892925,8 C2.04401779,11.3130506 1.90156205,12.9695759 1.90156205,12.9695759 C2.76813412,12.1376901 3.20142016,11.7217472 3.20142016,11.7217472 C2.3208137,17.2266339 1.88051047,19.9790772 1.88051047,19.9790772 C3.03280111,18.2886915 3.60894643,17.4434986 3.60894643,17.4434986 C2.48091363,24.2516819 1.91689723,27.6557736 1.91689723,27.6557736 C3.37051067,25.8531347 4.09731739,24.9518152 4.09731739,24.9518152 C1.8279801,31.222975 0.693311462,34.3585549 0.693311462,34.3585549 C2.46089249,32.482398 3.344683,31.5443195 3.344683,31.5443195 L0,41.5787285 L12,42 Z" id="Path"></path>
                    </g>
                </g>
            </g>
        </g>
    </g>
</svg>
